src/epub/images/titlepage.svg

<?xml version="1.0" encoding="utf-8"?>
<svg xmlns="http://www.w3.org/2000/svg" xmlns:svg="http://www.w3.org/2000/svg" version="1.1" viewBox="0 0 1400 340">
	<title>The titlepage for the Standard Ebooks edition of The Awakening, by Kate Chopin</title>
	<g>
		<path d="m 255.45248,68.245613 18.33918,0 0,61.754387 17.59064,0 0,-61.754387 18.33918,0 0,-15.438597 -54.269,0 0,15.438597 z"/>
		<path d="m 338.64692,99.029239 24.88889,0 0,30.970761 17.59065,0 0,-77.192984 -17.59065,0 0,30.783626 -24.88889,0 0,-30.783626 -17.59064,0 0,77.192984 17.59064,0 0,-30.970761 z"/>
		<path d="m 441.49196,52.807016 -44.16375,0 0,77.192984 44.16375,0 0,-15.4386 -26.5731,0 0,-15.532161 25.45029,0 0,-15.438597 -25.45029,0 0,-15.345029 26.5731,0 0,-15.438597 z"/>
		<path d="m 526.39401,52.807016 -16.2807,0 L 478.95541,130 l 18.90059,0 5.7076,-15.4386 29.38012,0 5.7076,15.4386 18.90058,0 -31.15789,-77.192984 z m 0.5614,46.31579 -17.40351,0 8.60819,-22.45614 0.18713,0 8.60819,22.45614 z"/>
		<path d="m 616.65863,130 19.46198,0 21.98831,-77.192984 -19.46199,0 -13.19298,52.959064 -0.46784,0 -14.03509,-52.959064 -13.28655,0 -14.03508,52.959064 -0.46784,0 -13.19298,-52.959064 -19.55556,0 L 572.40132,130 591.95687,130 604.30775,86.678362 616.65863,130 Z"/>
		<path d="m 697.94371,52.807016 -16.28071,0 L 650.50511,130 l 18.90058,0 5.70761,-15.4386 29.38011,0 5.70761,15.4386 18.90058,0 -31.15789,-77.192984 z m 0.5614,46.31579 -17.40351,0 8.60819,-22.45614 0.18713,0 8.60819,22.45614 z"/>
		<path d="m 807.2902,130 -35.92983,-40.608188 31.06433,-36.584796 -21.33333,0 -26.47953,31.532164 0,-31.532164 -17.59065,0 0,77.192984 17.59065,0 0,-32.748539 L 783.05628,130 l 24.23392,0 z"/>
		<path d="m 859.83261,52.807016 -44.16374,0 0,77.192984 44.16374,0 0,-15.4386 -26.5731,0 0,-15.532161 25.45029,0 0,-15.438597 -25.45029,0 0,-15.345029 26.5731,0 0,-15.438597 z"/>
		<path d="m 892.53582,82.093566 0.18713,0 L 923.41301,130 l 17.59064,0 0,-77.192984 -17.59064,0 0,47.906434 -0.18713,0 -30.69006,-47.906434 -17.59065,0 0,77.192984 17.59065,0 0,-47.906434 z"/>
		<path d="m 974.83843,52.807016 -17.59065,0 0,77.192984 17.59065,0 0,-77.192984 z"/>
		<path d="m 1008.7127,82.093566 0.1871,0 30.6901,47.906434 17.5906,0 0,-77.192984 -17.5906,0 0,47.906434 -0.1871,0 -30.6901,-47.906434 -17.59065,0 0,77.192984 17.59065,0 0,-47.906434 z"/>
		<path d="m 1143.2259,86.771929 -35.6491,0 0,13.567251 17.7778,0 c 0,9.45029 -8.3275,14.87719 -16.7486,14.87719 -10.8538,0 -19.6491,-10.66666 -19.6491,-23.766078 0,-13.380117 8.7953,-24.140352 19.6491,-24.140352 6.8304,0 12.7252,2.713451 17.2164,9.918129 l 11.5088,-12.631579 c -6.7369,-8.140351 -16.1872,-13.192983 -29.7544,-13.192983 -21.7076,0 -37.6141,17.871346 -37.6141,40.046785 0,22.081868 16.8421,39.953218 37.6141,39.953218 15.1579,0 31.4386,-8.32749 35.6491,-27.88304 l 0,-16.748541 z"/>
	</g>
	<g>
		<path d="m 481.63816,290 -26.94737,-30.45614 23.29825,-27.4386 -16,0 -19.85965,23.64913 0,-23.64913 -13.19298,0 0,57.89474 13.19298,0 0,-24.5614 21.33333,24.5614 18.17544,0 z"/>
		<path d="m 518.57566,232.10526 -12.21053,0 L 482.99671,290 l 14.17544,0 4.2807,-11.57895 22.03509,0 4.2807,11.57895 14.17544,0 -23.36842,-57.89474 z m 0.42105,34.73685 -13.05263,0 6.45614,-16.84211 0.14035,0 6.45614,16.84211 z"/>
		<path d="m 542.05811,243.68421 13.75439,0 0,46.31579 13.19298,0 0,-46.31579 13.75439,0 0,-11.57895 -40.70176,0 0,11.57895 z"/>
		<path d="m 625.63377,232.10526 -33.12281,0 0,57.89474 33.12281,0 0,-11.57895 -19.92983,0 0,-11.64912 19.08772,0 0,-11.57895 -19.08772,0 0,-11.50877 19.92983,0 0,-11.57895 z"/>
		<path d="m 691.02083,278.07018 c -13.26316,0 -19.08772,-9.26316 -19.08772,-17.05264 0,-7.71929 5.82456,-16.98245 19.08772,-16.98245 6.73684,0 11.36842,3.57895 11.36842,3.57895 l 5.61403,-11.22807 c 0,0 -6.45614,-5.33334 -19.01754,-5.33334 -16.42105,0 -31.36842,13.47369 -31.36842,30.10527 0,16.5614 15.01754,29.89473 31.36842,29.89473 12.5614,0 19.01754,-5.33333 19.01754,-5.33333 l -5.61403,-11.22807 c 0,0 -4.63158,3.57895 -11.36842,3.57895 z"/>
		<path d="m 731.31249,266.77193 18.66667,0 0,23.22807 13.19298,0 0,-57.89474 -13.19298,0 0,23.08772 -18.66667,0 0,-23.08772 -13.19298,0 0,57.89474 13.19298,0 0,-23.22807 z"/>
		<path d="m 773.97697,261.01754 c 0,16.91228 12.07017,30.03509 29.19298,30.03509 16.63158,0 29.12281,-13.12281 29.12281,-30.03509 0,-16.91228 -13.05263,-29.96491 -29.12281,-29.96491 -15.92982,0 -29.19298,13.05263 -29.19298,29.96491 z m 14.24561,0 c 0,-8.63157 4.77193,-17.26315 14.94737,-17.26315 10.24562,0 14.87719,8.63158 14.87719,17.26315 0,8.63158 -4.35087,17.26316 -14.87719,17.26316 -10.80702,0 -14.94737,-8.63158 -14.94737,-17.26316 z"/>
		<path d="m 843.11402,232.10526 0,57.89474 13.19298,0 0,-21.47368 7.92982,0 c 11.29825,0 19.78948,-6.66667 19.78948,-18.5965 0,-11.99999 -8.49123,-17.82456 -19.78948,-17.82456 l -21.1228,0 z M 856.307,258 l 0,-15.36842 3.7193,0 c 5.19298,0 10.10526,1.75439 10.10526,7.7193 0,5.89473 -4.91228,7.64912 -10.10526,7.64912 l -3.7193,0 z"/>
		<path d="m 908.04495,232.10526 -13.19299,0 0,57.89474 13.19299,0 0,-57.89474 z"/>
		<path d="m 934.70065,254.07018 0.14035,0 23.01754,35.92982 13.19298,0 0,-57.89474 -13.19298,0 0,35.92983 -0.14035,0 -23.01754,-35.92983 -13.19299,0 0,57.89474 13.19299,0 0,-35.92982 z"/>
	</g>
</svg>

<?xml version="1.0" encoding="utf-8"?>
<svg xmlns="http://www.w3.org/2000/svg" xmlns:svg="http://www.w3.org/2000/svg" version="1.1" viewBox="0 0 1400 340">
	<title>The titlepage for the Standard Ebooks edition of The Awakening, by Kate Chopin</title>
	<g aria-label="THE AWAKENING">
		<path d="m 255.45248,68.245613 h 18.33918 V 130 H 291.3823 V 68.245613 h 18.33918 V 52.807016 h -54.269 z"/>
		<path d="m 338.64692,99.029239 h 24.88889 V 130 h 17.59065 V 52.807016 H 363.53581 V 83.590642 H 338.64692 V 52.807016 H 321.05628 V 130 h 17.59064 z"/>
		<path d="M 441.49196,52.807016 H 397.32821 V 130 h 44.16375 v -15.4386 h -26.5731 V 99.029239 h 25.45029 V 83.590642 H 414.91886 V 68.245613 h 26.5731 z"/>
		<path d="m 526.39401,52.807016 h -16.2807 L 478.95541,130 H 497.856 l 5.7076,-15.4386 h 29.38012 L 538.65132,130 h 18.90058 z m 0.5614,46.31579 H 509.5519 l 8.60819,-22.45614 h 0.18713 z"/>
		<path d="m 616.65863,130 h 19.46198 l 21.98831,-77.192984 h -19.46199 l -13.19298,52.959064 h -0.46784 L 610.95102,52.807016 h -13.28655 l -14.03508,52.959064 h -0.46784 L 569.96857,52.807016 H 550.41301 L 572.40132,130 h 19.55555 l 12.35088,-43.321638 z"/>
		<path d="M 697.94371,52.807016 H 681.663 L 650.50511,130 h 18.90058 l 5.70761,-15.4386 h 29.38011 L 710.20102,130 h 18.90058 z m 0.5614,46.31579 H 681.1016 l 8.60819,-22.45614 h 0.18713 z"/>
		<path d="M 807.2902,130 771.36037,89.391812 802.4247,52.807016 H 781.09137 L 754.61184,84.33918 V 52.807016 H 737.02119 V 130 h 17.59065 V 97.251461 L 783.05628,130 Z"/>
		<path d="M 859.83261,52.807016 H 815.66887 V 130 h 44.16374 v -15.4386 h -26.5731 V 99.029239 H 858.7098 V 83.590642 H 833.25951 V 68.245613 h 26.5731 z"/>
		<path d="m 892.53582,82.093566 h 0.18713 L 923.41301,130 h 17.59064 V 52.807016 h -17.59064 v 47.906434 h -0.18713 L 892.53582,52.807016 H 874.94517 V 130 h 17.59065 z"/>
		<path d="M 974.83843,52.807016 H 957.24778 V 130 h 17.59065 z"/>
		<path d="m 1008.7127,82.093566 h 0.1871 L 1039.5899,130 h 17.5906 V 52.807016 h -17.5906 v 47.906434 h -0.1871 L 1008.7127,52.807016 H 991.12205 V 130 h 17.59065 z"/>
		<path d="m 1143.2259,86.771929 h -35.6491 v 13.567251 h 17.7778 c 0,9.45029 -8.3275,14.87719 -16.7486,14.87719 -10.8538,0 -19.6491,-10.66666 -19.6491,-23.766078 0,-13.380117 8.7953,-24.140352 19.6491,-24.140352 6.8304,0 12.7252,2.713451 17.2164,9.918129 l 11.5088,-12.631579 c -6.7369,-8.140351 -16.1872,-13.192983 -29.7544,-13.192983 -21.7076,0 -37.6141,17.871346 -37.6141,40.046785 0,22.081868 16.8421,39.953218 37.6141,39.953218 15.1579,0 31.4386,-8.32749 35.6491,-27.88304 z"/>
	</g>
	<g aria-label="KATE CHOPIN">
		<path d="m 481.63816,290 -26.94737,-30.45614 23.29825,-27.4386 h -16 l -19.85965,23.64913 V 232.10526 H 428.93641 V 290 h 13.19298 V 265.4386 L 463.46272,290 Z"/>
		<path d="M 518.57566,232.10526 H 506.36513 L 482.99671,290 h 14.17544 l 4.2807,-11.57895 h 22.03509 L 527.76864,290 h 14.17544 z m 0.42105,34.73685 H 505.94408 L 512.40022,250 h 0.14035 z"/>
		<path d="M 542.05811,243.68421 H 555.8125 V 290 h 13.19298 v -46.31579 h 13.75439 v -11.57895 h -40.70176 z"/>
		<path d="M 625.63377,232.10526 H 592.51096 V 290 h 33.12281 v -11.57895 h -19.92983 v -11.64912 h 19.08772 v -11.57895 h -19.08772 v -11.50877 h 19.92983 z"/>
		<path d="m 691.02083,278.07018 c -13.26316,0 -19.08772,-9.26316 -19.08772,-17.05264 0,-7.71929 5.82456,-16.98245 19.08772,-16.98245 6.73684,0 11.36842,3.57895 11.36842,3.57895 l 5.61403,-11.22807 c 0,0 -6.45614,-5.33334 -19.01754,-5.33334 -16.42105,0 -31.36842,13.47369 -31.36842,30.10527 0,16.5614 15.01754,29.89473 31.36842,29.89473 12.5614,0 19.01754,-5.33333 19.01754,-5.33333 l -5.61403,-11.22807 c 0,0 -4.63158,3.57895 -11.36842,3.57895 z"/>
		<path d="m 731.31249,266.77193 h 18.66667 V 290 h 13.19298 v -57.89474 h -13.19298 v 23.08772 H 731.31249 V 232.10526 H 718.11951 V 290 h 13.19298 z"/>
		<path d="m 773.97697,261.01754 c 0,16.91228 12.07017,30.03509 29.19298,30.03509 16.63158,0 29.12281,-13.12281 29.12281,-30.03509 0,-16.91228 -13.05263,-29.96491 -29.12281,-29.96491 -15.92982,0 -29.19298,13.05263 -29.19298,29.96491 z m 14.24561,0 c 0,-8.63157 4.77193,-17.26315 14.94737,-17.26315 10.24562,0 14.87719,8.63158 14.87719,17.26315 0,8.63158 -4.35087,17.26316 -14.87719,17.26316 -10.80702,0 -14.94737,-8.63158 -14.94737,-17.26316 z"/>
		<path d="M 843.11402,232.10526 V 290 H 856.307 v -21.47368 h 7.92982 c 11.29825,0 19.78948,-6.66667 19.78948,-18.5965 0,-11.99999 -8.49123,-17.82456 -19.78948,-17.82456 z M 856.307,258 v -15.36842 h 3.7193 c 5.19298,0 10.10526,1.75439 10.10526,7.7193 0,5.89473 -4.91228,7.64912 -10.10526,7.64912 z"/>
		<path d="M 908.04495,232.10526 H 894.85196 V 290 h 13.19299 z"/>
		<path d="M 934.70065,254.07018 H 934.841 L 957.85854,290 h 13.19298 v -57.89474 h -13.19298 v 35.92983 h -0.14035 L 934.70065,232.10526 H 921.50766 V 290 h 13.19299 z"/>
	</g>
</svg>
